remix/System/share-forward-line.svg

<svg viewBox="0 0 24 24" fill="currentColor" xmlns="http://www.w3.org/2000/svg"><path d="M13 14H11C7.54202 14 4.53953 15.9502 3.03239 18.8107C3.01093 18.5433 3 18.2729 3 18C3 12.4772 7.47715 8 13 8V2.5L23.5 11L13 19.5V14ZM11 12H15V15.3078L20.3214 11L15 6.69224V10H13C10.5795 10 8.41011 11.0749 6.94312 12.7735C8.20873 12.2714 9.58041 12 11 12Z"/></svg>

<svg viewBox="0 0 24 24" xmlns="http://www.w3.org/2000/svg"><path fill="none" d="M0 0h24v24H0Z"/><path d="M13 14h-2l-.001 0c-3.35-.01-6.42 1.85-7.97 4.81v0c-.03-.27-.04-.54-.04-.81 0-5.53 4.477-10 10-10V2.5l10.5 8.5 -10.5 8.5V14Zm-2-2h4v3.308L20.32 11l-5.33-4.31v3.3h-2v-.001c-2.33-.01-4.54 1.01-6.057 2.77v0c1.29-.52 2.66-.78 4.057-.78Z"/></svg>
